svgs/sharp-duotone-light/square-chevron-up.svg

<svg xmlns="http://www.w3.org/2000/svg" viewBox="0 0 448 512"><!--! Font Awesome Pro 7.1.0 by @fontawesome - https://fontawesome.com License - https://fontawesome.com/license (Commercial License) Copyright 2025 Fonticons, Inc. --><path opacity=".4" fill="currentColor" d="M32 64l384 0 0 384-384 0 0-384zM89.4 288l22.6 22.6 11.3-11.3 100.7-100.7 100.7 100.7 11.3 11.3 22.6-22.6-11.3-11.3-112-112-11.3-11.3-11.3 11.3-112 112-11.3 11.3z"/><path fill="currentColor" d="M32 64l0 384 384 0 0-384-384 0zM0 32l448 0 0 448-448 0 0-448zM235.3 164.7l112 112 11.3 11.3-22.6 22.6-11.3-11.3-100.7-100.7-100.7 100.7-11.3 11.3-22.6-22.6 11.3-11.3 112-112 11.3-11.3 11.3 11.3z"/></svg>

<svg xmlns="http://www.w3.org/2000/svg" viewBox="0 0 448 512"><!--! Font Awesome Pro 6.7.2 by @fontawesome - https://fontawesome.com License - https://fontawesome.com/license (Commercial License) Copyright 2024 Fonticons, Inc. --><defs><style>.fa-secondary{opacity:.4}</style></defs><path class="fa-secondary" d="M32 64l384 0 0 384L32 448 32 64zM89.4 288L112 310.6l11.3-11.3L224 198.6 324.7 299.3 336 310.6 358.6 288l-11.3-11.3-112-112L224 153.4l-11.3 11.3-112 112L89.4 288z"/><path class="fa-primary" d="M32 64l0 384 384 0 0-384L32 64zM0 32l32 0 384 0 32 0 0 32 0 384 0 32-32 0L32 480 0 480l0-32L0 64 0 32zM235.3 164.7l112 112L358.6 288 336 310.6l-11.3-11.3L224 198.6 123.3 299.3 112 310.6 89.4 288l11.3-11.3 112-112L224 153.4l11.3 11.3z"/></svg>
